X:95
T:The Roaring Barmaid
R:jig
C:Tony Sullivan
D:Danu:Think Before You Think
Z:Devin McCabe
N:Title changed from the Butler's of Glen Avenue. Thanks Stephen Rapp.
M:6/8
L:1/8
K:G
GFG EGD | GFG EGD | GFG BGG | dGG (3Bcd A | GFG EGD | GFG EGD |
GAB deg | deg edB :: deg b3|bab deg | b3 bag |
edB deg | b3 bab | agg bgg | agg efg | deg edB :|
